X:1
T:C Polka (1)
M:2/4
L:1/8
R:Polka
D:Panic at the Caf?
Z:Dave Holland <dave@biff.org.uk>
K:C
Gc cB/c/|dB cd/e/|fd/f/ ec|d>c B/A/G|\
Gc cB/c/|dB cd/e/|fd/f/ ec|d/c/B c2:|
ef/g/ ef/g/|ec B>c|dd/e/ f/e/d/c/|AB AG|\
ef/g/ ef/g/|ec B>c|dd/e/ f/e/d/c/|AB c2:|
<end>
<start>
